X: 3932
T: Blackbird, The
R: hornpipe
M: 4/4
K: Dmixolydian
|:cA|B2 d2 c2 B2|A2 AG ABcA|d^cde d=cAF|G2 AF D2 DE|
FDFG A2 fe|d^cde fdAF|[M:2/4] GAGF|[M:4/4] D2 D2 D2-:|
|:Dg|fede fdfg|a2 ag fgaf|g2 gf gbaf|gagf d3 g|
f2 de fefg|abag fgaf|gagf d2 d2|defg abag|
fgaf gage|f3 e dcAB|cBcd efge|a4 A2 AG|
FGAB cBce|dcAF GAGF|D2 D2 D2-:|

